**kern	**dynam
*clefG2	*
*k[b-]	*
*F:	*
*M3/4	*
=1	=1
!LO:TX:a:B:t=Allegro	!
(<[4f	p
8fL]	.
16gL	.
16fJJ	.
8e'L)	.
8f'J	.
=2	=2
4c	.
4r	.
4r	.
=3	=3
(<[4f	.
8fL]	.
16gL	.
16fJJ	.
8e'L)	.
8f'J	.
=4	=4
4d	.
4r	.
4r	.
=5	=5
[2.b-	.
=6	=6
(>2b-]	>
4g)	]
=7	=7
(>2f	.
8.b-L	.
16gJk)	.
=8	=8
(<2f	.
4e)	.
=9	=9
(<[4f	.
8fL]	f
16gL	.
16fJJ	.
8e'L)	.
8f'J	.
=10	=10
4c	.
4r	.
4r	.
=11	=11
!!linebreak:original
(<[4f	.
8fL]	.
16gL	.
16fJJ	.
8e'L)	.
8f'J	.
=12	=12
4d	.
4r	.
4r	.
=13	=13
2.r	.
=14	=14
2.ee	<
=15	=15
2.r	[
=16	=16
2.cc	<
=17	=17
2.r	[
=18	=18
!LO:TX:b:Bi:t=Cresc.	!
(>4.ee-X	.
8ddL	.
8cc	.
8b-J)	.
=19	=19
(>2a	.
16qqb-/LL	.
16qqa/	.
16qqg/	.
16qqa/JJ	.
8ccL	.
8b-J	.
=20	=20
4a)	p
4r	.
4r	.
=21	=21
(<[4c	.
8cL]	.
16dL	.
16cJJ)	.
8Bn'L	.
8c'J	.
=22	=22
(2e-X	sf
4d)	.
=23	=23
!!linebreak:original
(<[4d	.
8dL]	.
16e-XL	.
16dJJ)	.
8c#X'L	.
8d'J	.
=24	=24
(<2f	sf
4en)	.
=25	=25
(<[4g	.
8gL]	.
16aL	.
16gJJ)	.
8f#X'L	.
8g'J	.
=26	=26
(2b-	sf
4a')	.
=27	=27
(2cc	sf
4b-')	.
=28	=28
(8aL	.
8g)	f
(8a	.
8g)	.
(8a	.
8gJ)	.
=29	=29
8fL	.
8A 8f	p
8A 8f	.
8A 8f	.
8A 8f	.
8AJ 8f	.
=30	=30
2.A 2.f	.
=31	=31
2.G 2.e	.
=32	=32
2.G 2.e	.
=33	=33
2.A 2.f	.
=34	=34
!!linebreak:original
2.A 2.f	.
=35	=35
2.B- 2.g	.
=36	=36
2.B- 2.g	.
=37	=37
2.A 2.g	.
=38	=38
2.A 2.f	.
=39	=39
2.G 2.f	.
=40	=40
2.G 2.e-X	.
=41	=41
[2.c [2.e-X	pp
=42	=42
4c] 4e	.
(4c'	.
4c')	.
=43	=43
(<2.d-X	.
=44	=44
4d)	.
(4d-X'	.
4d-')	.
=45	=45
[2.e-X	.
=46	=46
4e	.
!LO:TX:b:Bi:t=Cresc.	!
(4g-X'	.
4g-')	.
=47	=47
2.a-X	sf
=48	=48
4gn'	.
4a-X'	f
4an'	.
=49	=49
!!linebreak:original
4g	.
8r	p
8d'L	.
8d'	.
8e-X'J	.
=50	=50
4d	.
8r	.
8dd'L	.
8dd'	.
8ee-X'J	.
=51	=51
4dd	.
8r	.
!LO:TX:b:Bi:t=Cresc.	!
8d'L	.
8d'	.
8e-X'J	.
=52	=52
4d	.
8r	.
8dd'L	.
8dd'	.
8ee-X'J	.
=53	=53
4dd	.
8r	.
8dd'L	.
8dd'	.
8ee-X'J	.
=54	=54
16ddLL	ff
16G	.
16A	.
16BnJJ	.
16cLL	.
16d	.
16en	.
16f#XJJ	.
16gLL	.
16f#	.
16g	.
16f#JJ	.
=55	=55
!!linebreak:original
4g	.
4r	.
4r	.
=56	=56
2.r	.
=57	=57
2.r	.
=58	=58
4r	.
4r	.
8g'L	p
[8gJ	.
=59	=59
8g]	.
(8gL	.
(>8bnJ)	.
(>8bL	.
8ccJ)	.
8cc	.
=60	=60
4ee	.
4dd	.
4r	.
=61	=61
2.r	.
=62	=62
4r	.
4r	.
4bn	.
=63	=63
4ee	.
4e	.
[4cc)	.
=64	=64
(4cc]	.
8b-)	.
8r	.
4r	.
=65	=65
2.r	.
=66	=66
4r	.
4r	.
8d'L	.
(8dJ	.
=67	=67
!!linebreak:original
(8e	.
(>8ccL	.
8b-J)	.
(8b-L	.
8gnJ)	.
8g	.
=68	=68
4.a-X	.
8r	.
8g'L	.
(8gJ	.
=69	=69
8a-X)	.
(8a-L	.
8fJ)	.
(8fL	.
8dJ)	.
(8d	.
=70	=70
!LO:TX:a:Bi:t=Cresc.	!
8BnL)	.
(8BJ	.
8c)	.
(4ee~	.
8ee-')	.
=71	=71
(>2ee-X	.
8.ffL)	.
16ddJk	.
=72	=72
8ccL	.
8GJ 8en	p
8GL 8e	.
8G 8e	.
8G 8e	.
8GJ 8e	.
=73	=73
8GL 8e	.
8GJ 8e	.
8GL 8e	.
8GJ 8e	.
8GL 8e	.
8GJ 8e	.
=74	=74
2.G 2.f	.
=75	=75
2.Bn	.
=76	=76
!!linebreak:original
!LO:TX:b:Bi:t=Cresc.	!
2.B-X	.
=77	=77
2.G 2.g	.
=78	=78
4A'	fp
4f' 4a	.
4r	.
=79	=79
2.r	.
=80	=80
4r	.
4r	.
16r	.
16ALL	.
!LO:TX:a:Bi:t=Cresc.	!
16Bn	.
16c#XJJ	.
=81	=81
16dLL	.
16e	.
16f	.
16gJJ	.
16aLL	.
16g	.
16f	.
16eJJ	.
16dLL	.
16cn	.
16A	.
16BnJJ	.
=82	=82
(<4.G	f
16ALL	.
16BnJJ	.
16cLL	.
16d	.
16e)	.
16f#XJJ	.
=83	=83
8gL	.
8bn	.
8b	.
8b	.
8b	.
8bJ	.
=84	=84
4cc	.
4.G	.
!	!LO:DY:a
8G	fp
=85	=85
!!linebreak:original
(<8GL	.
8dJ)	.
(8dL	.
8cJ)	.
(8c'L	.
8c'J)	.
=86	=86
8c'L	.
8c'	.
(8c	.
8g)	.
(8g	.
8fJ)	.
=87	=87
(<8fL	.
8dJ)	.
4d	.
4r	.
=88	=88
2.r	.
=89	=89
2.cc	p
=90	=90
!LO:TX:b:Bi:t=Cresc.	!
(>[2.cc	fp
=91	=91
4cc]	.
4cc')	.
4f'	.
=92	=92
4e')	.
4.g	fp
8f)	.
=93	=93
(8fL	.
8d)	.
(8d	.
8e)	.
(<8e	.
8ccJ)	.
=94	=94
8cc'L	.
(>8cc'	.
8cc	.
8gg)	.
8gg	.
8ffJ)	.
=95	=95
!!linebreak:original
8ffL	.
8ddJ	.
4dd	.
4r	.
=96	=96
2.r	.
=97	=97
2.G	.
=98	=98
2.A-X	.
=99	=99
!	!LO:DY:a
2An	sf
4A	.
=100	=100
!	!LO:DY:a
4A'	sf
!	!LO:DY:a
(4d'	ff
4Bn')	.
=101	=101
8cL	.
8G 8e	.
8G 8e	.
8G 8e	.
8G 8e	.
8GJ 8e	.
=102	=102
2.G 2.e	.
=103	=103
2.G 2.f	.
=104	=104
2.G 2.f	.
=105	=105
2.G 2.e	.
=106	=106
2.G 2.e	.
=107	=107
2.G 2.f	.
=108	=108
2.G 2.f	.
=109	=109
!!linebreak:original
4G' 4e	p
4G' 4e 4cc	.
4r	.
=110	=110
2.r	.
=111	=111
4r	.
!	!LO:DY:a
4r	sf
!LO:TX:b:Bi:t=Cresc.	!
16eLL	.
16cc	.
16bn	.
16aJJ	.
=112	=112
16gLL	.
16f	.
16e	.
16dJJ	.
(16cLL	.
16B-	.
16c	.
16B-JJ	.
16cLL	.
16B-	.
!	!LO:DY:a
16c	p
16B-JJ)	.
=113	=113
4c'	.
4G'	f
4G'	.
=114	=114
4G'	.
4r	.
4r	.
=115:|!	=115:|!
4A 4a	f
4r	.
4r	.
=116	=116
2.r	.
=117	=117
16r	.
16aLL	.
16g#X	.
16f#XJJ	.
16eLL	.
16d	.
16c#X	.
16BnJJ	.
(16ALL	.
16G#X	.
16A	.
16G#JJ)	.
=118	=118
!!linebreak:original
4A	.
4A'	.
(4A	.
=119	=119
[2.B-X)	fp
=120	=120
4B-]	.
(4B-'	.
4B-')	.
=121	=121
[2.B-	fp
=122	=122
4B-]	.
(4B-'	.
4B-')	.
=123	=123
(>4.b-	pp
16ccLL)	.
16b-JJ	.
8a'L	.
8b-'J	.
=124	=124
(>2cc	.
4e-X)	.
=125	=125
2.r	.
=126	=126
(>4.dd	.
16eenLL	.
16ddJJ)	.
8cc#X'L	.
8dd'J	.
=127	=127
(>2een	.
4g)	.
=128	=128
2.r	.
=129	=129
2.r	.
=130	=130
2.r	.
=131	=131
!!linebreak:original
4r	.
4.b-X	f
16ccLL)	.
16b-JJ	.
=132	=132
8a'L	.
8b-'J	.
(4gg'	.
4ff')	.
=133	=133
(>[4ee	.
8eeL]	.
16ggL	sf
16ffJJ	.
8eeL)	.
8ddJ)	.
=134	=134
(>[4ee	.
8eeL]	.
16ggL	sf
(>16ffJJ)	.
8eeL	.
8ddJ)	.
=135	=135
(>[4ee-X	f
8ee-L]	.
16ffL	.
16ee-JJ	.
8dd'L)	.
8ee-'J	.
=136	=136
4f#X'	.
4g'	.
4g#X'	.
=137	=137
4a'	.
4b-X'	.
4bn'	.
=138	=138
4cc'	.
4aa'	.
4gg'	.
=139	=139
(>8ff#XL	.
16aaL	.
16ggJJ)	.
4.ff#	sf
8gg)	.
=140	=140
!!linebreak:original
(8ff#XL	.
16aaL	.
16ggJJ)	.
(4.ff#	sf
8gg)	.
=141	=141
2.r	.
=142	=142
2.r	.
=143	=143
4r	.
(4.a-X	f
16b-LL	.
16a-JJ)	.
=144	=144
8g'L	.
8a-X'J	.
(4dd'	.
4cc')	.
=145	=145
(8bnL	.
16ddL	.
(>16ccJJ)	.
4.b	sf
8cc)	.
=146	=146
(>8bnL	.
16ddL	.
16ccJJ)	.
4.b	sf
8cc	.
=147	=147
(>8dd-XL)	.
16b-XL	.
16ccJJ)	.
4.dd-	sf
8cc	.
=148	=148
8dd-XL)	.
16b-L	.
16ccJJ)	.
(4.dd-	sf
8cc)	.
=149	=149
(>8ccL	.
16ee-XL	.
16dd-XJJ)	.
4.cc	sf
8b-)	.
=150	=150
!!linebreak:original
(>8ccL	.
16ee-XL)	.
16dd-XJJ	.
(4.cc	sf
8b-)	.
=151	=151
8d-XL	fp
8d-	.
8d-	.
8d-	.
8d-	.
8d-J	.
=152	=152
2d-X	.
=153	=153
2.d-X	.
=154	=154
2.d-X	.
=155	=155
[4gg-X	fp
(8gg-L]	.
16aa-XL	.
16gg-JJ)	.
8ff'L	.
8gg-'J	.
=156	=156
[4dd-X	p
(8dd-L]	.
16ee-XL	.
16dd-JJ)	.
8cc'L	.
8dd-'J	.
=157	=157
[4b-	.
(8b-L]	.
16cc-XL)	.
16b-JJ	.
8an'L	.
8b-'J	.
=158	=158
(<4g-X'	.
4f'	.
4en')	.
=159	=159
!!linebreak:original
8cL	.
8c	.
8c	.
8c	.
8c	.
8cJ	.
=160	=160
2.c	.
=161	=161
2.c	.
=162	=162
2.c	.
=163	=163
[4dd-X	.
(8dd-L]	.
16ee-XL)	.
16dd-JJ	.
8cc'L	.
8dd-'J	.
=164	=164
[4a-X	.
(8a-L]	.
16b-L	.
16a-JJ)	.
8g'L	.
8a-'J	.
=165	=165
[4f	.
(8fL]	.
16g-XL	.
16fJJ)	.
8e-X'L	.
8f'J	.
=166	=166
(<4d-X'	.
4c'	.
4Bn'	.
=167	=167
4c')	.
[2G [2e	.
=168	=168
4G] 4e]	sf
[2G [2e	.
=169	=169
!!linebreak:original
4G] 4e]	sf
[2G [2e	.
=170	=170
4G] 4e]	sf
4G 4e	.
4G 4e	.
=171	=171
4G 4e	.
4r	.
16r	.
16c'LL	.
16d'	.
16e'JJ	.
=172	=172
16f'LL	.
16g'	.
16a'	.
16bn'JJ	.
[4cc	.
16ccLL]	sf
16c'	.
16d'	.
16e'JJ	.
=173	=173
16f'LL	.
16g'	.
16a'	.
16bn'JJ	.
[4cc	.
16ccLL]	sf
16c'	.
16d'	.
16e'JJ	.
=174	=174
16f'LL	.
16g'	.
16a'	.
16bn'JJ	.
16cc'LL	.
16c'	.
16d'	.
16e'JJ	.
16f'LL	.
16g'	.
16a'	.
16b'JJ	.
=175	=175
!!linebreak:original
[2cc	sf
8ccL]	.
16bn'L	.
16a'JJ	.
=176	=176
16g'LL	sf
16f'	.
16e'	.
16d'JJ	.
[4c	.
8cL]	sf
16c'L	.
16d'JJ	.
=177	=177
(<16eLL	.
16f	.
16g	.
16aJJ)	.
(8b-X'L	.
8a')	.
8g'	.
8f'J	.
=178	=178
!LO:TX:b:Bi:t=Cresc.	!
8e'L	.
8f'	.
8e'	.
8d'	.
8c'	.
8B-'J	.
=179	=179
(4.A 4.f	ff
16gLL	.
16fJJ)	.
8e'L	.
8f'J	.
=180	=180
4c	.
4r	.
4r	.
=181	=181
(<4.f	.
16gLL	.
16fJJ	.
8e'L)	.
8f'J	.
=182	=182
4d	.
4r	.
4r	.
=183	=183
[2.b-	p
=184	=184
!!linebreak:original
(>2b-]	>
4g)	.
=185	=185
(<2f	]
8.b-L	.
16gJk	.
=186	=186
2f)	.
4e)	.
=187	=187
(>[4b-	p
8b-L]	.
16ccL	.
16b-JJ	.
(>8a'L)	.
8b-'J	.
=188	=188
4.cc	.
16dd-XLL	.
16ccJJ	.
8b-'L)	.
8cc'J	.
=189	=189
(2dd-X	.
8.gg-XL	.
16ee-XJk)	.
=190	=190
(>2dd-X	.
4cc)	.
=191	=191
(<2f	.
(<8.b-L	.
16g-XJk)	.
=192	=192
2f	.
4e-X)	.
=193	=193
(2b-~	.
4b-')	.
=194	=194
(>2b-	.
4a)	.
=195	=195
(<2d-X	.
8.g-XL	.
!	!LO:DY:a
16e-XJk)	<
=196	=196
!!linebreak:original
!LO:TX:b:Bi:t=Cresc.	!
(<2.d-X	[
=197	=197
2.a-X)	.
=198	=198
4g-X	p
4r	.
4r	.
=199	=199
4r	.
4B-	.
4B-	.
=200	=200
[2.c-X	.
=201	=201
(<4c	.
4c-X'	.
4c-')	.
=202	=202
[2.d-X	.
=203	=203
4d	.
4d-X'	.
4d-'	.
=204	=204
2a-X	.
(8a-'L	.
8g-X'J)	.
=205	=205
(<8g-XL	.
8f'	.
8f	.
8e-X')	.
8d-X'	.
8c-X'J	.
=206	=206
!LO:TX:a:Bi:t=Cresc.	!
(<4An	.
4B-)	.
4B-'	.
=207	=207
[4.B-	.
16cLL	.
16B-JJ	.
8A'L	.
8B-'J	.
=208	=208
!!linebreak:original
2gn	.
4g	f
=209	=209
4c'	.
4c'	.
4Bn'	.
=210	=210
4G	.
8r	.
8g'	p
8g'L	.
8a-X'J	.
=211	=211
4g	.
8r	.
8g'L	.
8g'	.
8a-X'J	.
=212	=212
4g	.
8r	.
8G'L	.
8G'	.
8A-X'J	.
=213	=213
4G	.
8r	.
8g'L	.
8g'	.
8a-X'J	.
=214	=214
!LO:TX:b:Bi:t=Cresc.	!
4g	.
8r	.
8ee'	.
8ee'L	.
8ff'J	.
=215	=215
16ee'LL	ff
16c	.
16d	.
16eJJ	.
16fLL	.
16g	.
16an	.
16bnJJ	.
16ccLL	.
16b	.
16cc	.
16bJJ	.
=216	=216
!!linebreak:original
4cc	.
4r	.
4r	.
=217	=217
2.r	.
=218	=218
2.r	.
=219	=219
4r	.
4r	.
8cc'L	p
[8ccJ	.
=220	=220
8cc]	.
(8ccL	.
8eeJ)	.
(>8eeL	.
8ffJ)	.
8ff	.
=221	=221
4aa	.
8gg)	.
8r	.
4r	.
=222	=222
2.r	.
=223	=223
4r	.
4r	.
4ee	p
=224	=224
4ff	.
4aa	.
4dd)	.
=225	=225
(>4ff	.
8ee)	.
8r	.
4r	.
=226	=226
2.r	.
=227	=227
4r	.
4r	.
8cc'L	.
[8ccJ	.
=228	=228
(>8cc]	.
8ccL	.
8b-J)	.
(8b-L	.
8aJ)	.
(8a	.
=229	=229
!!linebreak:original
(4.g	.
8r	.
8cc'L	.
8ccJ	.
=230	=230
8dd-X	.
8dd-L)	.
8b-J)	.
(8b-L	.
8gJ)	.
(8g	.
=231	=231
!LO:TX:b:Bi:t=Cresc.	!
8e)	.
(8eL	.
8fJ)	.
[4aa-X~	.
8aa-']	.
=232	=232
(>2aa-X	sf
8.bb-L	.
16ggJk)	.
=233	=233
8ffL	p
8A'J	.
8A'L	.
8A'J	.
8A'L	.
8A'J	.
=234	=234
2.A	.
=235	=235
2.B-	.
=236	=236
8B-L 8e	.
8B- 8e	.
8B- 8e	.
8B- 8e	.
8B- 8e	.
8B-J 8e	.
=237	=237
8cL	.
!LO:TX:b:Bi:t=Cresc.	!
8c 8f#X	.
8c 8f#	.
8c 8f#	.
8c 8f#	.
8cJ 8f#	.
=238	=238
2.c 2.f#X	.
=239	=239
!!linebreak:original
4g	fp
4B- 4g	.
4r	.
=240	=240
2.r	.
=241	=241
4r	.
4r	.
16r	.
!LO:TX:b:Bi:t=Cresc.	!
16dLL	.
16e	.
16f#XJJ	.
=242	=242
16gLL	.
16a	.
16b-	.
16ccJJ	.
16ddLL	.
16cc	.
16b-	.
16aJJ	.
16gLL	.
16fn	.
16e	.
16dJJ	.
=243	=243
(<4.c	.
16dLL	f
16eJJ	.
16fLL	.
16g	.
16a	.
16bnJJ)	.
=244	=244
8ccL	.
8e	.
8e	.
8e	.
8e	.
8eJ	.
=245	=245
(<4f'	.
4.c~	fp
8c')	.
=246	=246
(<8cL	.
8g)	.
(8g	.
8f)	.
8f)	.
8fJ	.
=247	=247
!!linebreak:original
8fL	.
(>8f	.
8f~	.
8cc)	.
8cc	.
8b-J)	.
=248	=248
(>8b-L	.
8gJ)	.
4g	.
4r	.
=249	=249
2.r	.
=250	=250
2.f	pp
=251	=251
[2.f	fp
=252	=252
(<4f]	.
4f'	.
4B-'	.
=253	=253
4A)	.
(4.cc	fp
8b-)	.
=254	=254
(>8b-L	.
8g)	.
8g	.
8a)	.
(>8a	.
8ffJ)	.
=255	=255
(>8ff'L	.
8ff')	.
8ff	.
(>8cc	.
8cc	.
8b-J)	.
=256	=256
(>8b-L	.
8aaJ)	.
4gg	.
4r	.
=257	=257
2.r	.
=258	=258
!!linebreak:original
2.c	sf
=259	=259
2.f	sf
=260	=260
2d 2f	sf
4d 4f	sf
=261	=261
(<4d' 4f	ff
4g'	.
4e')	.
=262	=262
8fL	.
8AJ 8f	.
8AL 8f	p
8AJ 8f	.
8AL 8f	.
8AJ 8f	.
=263	=263
2.A 2.f	.
=264	=264
2.B- 2.g	.
=265	=265
2.B- 2.g	.
=266	=266
8AL 8f	.
8f 8a	.
8f 8a	.
8f 8a	.
8f 8a	.
8fJ 8a	.
=267	=267
2.f 2.a	.
=268	=268
2.g 2.b-	.
=269	=269
2.g 2.b-	.
=270	=270
4f' 4a	.
4f' 4a	.
4r	.
=271	=271
2.r	.
=272	=272
!!linebreak:original
16r	.
!LO:TX:b:Bi:t=Cresc.	!
16ffLL	.
16ee	.
16ddJJ	.
16ccLL	.
16b-	.
16a	.
16gJJ	.
16fLL	.
16ff	.
16ee	.
16ddJJ	.
=273	=273
16ccLL	.
16b-	.
16a	.
(<16gJJ	.
16fLL	.
16e	.
16f	.
16eJJ)	.
(16fLL	.
16e	.
16f	.
16eJJ)	.
=274	=274
4f'	ff
4g'	.
4a'	.
=275	=275
4B-'	.
4c'	.
4d'	.
=276	=276
[2.e-X	sf
=277	=277
2.e	.
=278	=278
4d'	.
4en'	ff
4f#X'	.
=279	=279
4G'	.
4A'	.
4B-'	.
=280	=280
!!linebreak:original
[2.c	sf
=281	=281
2.c;]	.
=282	=282
4G'	.
4A'	.
4Bn'	.
=283	=283
4c'	.
4d'	.
4e'	.
=284	=284
(4f	.
4d)	.
4Bn	.
=285	=285
4G	.
4r	.
4r	.
=286	=286
(>8b-X'L	pp
16ccL)	.
16b-JJ	.
8a'L	.
(16b-L	.
16aJJ)	.
8gL	.
(16aL	.
16gJJ)	.
=287	=287
8f'L	.
(16gL	.
16fJJ)	.
8e'L	.
(16fL	.
16eJJ)	.
8d'L	.
(16eL	.
16dJJ)	.
=288	=288
(<4.c	.
16dLL	.
16c'JJ)	.
8Bn'L	.
8c'J	.
=289	=289
4b-	.
4r	.
4r	.
=290	=290
!!linebreak:original
(<4.c	.
16dLL	.
16cJJ)	.
8Bn'L	.
8c'J	.
=291	=291
!	!LO:DY:a
4a	pp
4r	.
4r	.
=292	=292
2.r	.
=293	=293
!LO:TX:b:Bi:t=Cresc.	!
(>4gg	.
4ee	.
4bn)	.
=294	=294
2.a	.
=295	=295
2.cc#X	sf
=296	=296
2.cc	.
=297	=297
2.b-	sf
=298	=298
2.ee-X	.
=299	=299
2.a-X	sf
=300	=300
(<4.a	pp
16b-LL	.
16aJJ	.
8g'L)	.
8a'J	.
=301	=301
(2b-	.
4G)	.
=302	=302
(<4A'	.
4A'	pp
4A')	.
=303	=303
2.Bn	.
=304	=304
!!linebreak:original
(<4A'	.
!LO:TX:b:B:t=ADAGIO	!
4f')	.
4f'	.
=305	=305
(<16fLL	.
16e	.
16d	.
16eJJ	.
16fLL	.
16e	.
16d	.
16eJJ	.
16fLL	.
16e	.
16d)	.
16eJJ	.
=306	=306
4f	.
8r	.
(16b-LL	.
16aJJ)	.
8g'L	.
8a'J	.
=307	=307
(2.b-	.
=308	=308
4a)	.
8r	.
(16ggLL	pp
16ffJJ)	.
8ee'L	.
8ff'J	.
=309	=309
!LO:TX:b:Bi:t=Cresc.	!
2.gg	.
=310	=310
4ff	.
4r	f
8ee'L	sf
8ff'J	.
=311	=311
4cc	.
4r	.
8g#X'L	sf
8a'J	.
=312	=312
4f	.
4r	.
8c'L	sf
8e'J	.
=313	=313
4f'	.
4A' 4f	.
4r	.
==314	==314
!!linebreak:original
*M9/8	*
(<8A~L	.
8A~	.
8A~J)	.
8d~L	.
8d~	.
8d~J)	.
8c#X~L	.
8c#~	.
8c#~J)	.
=315	=315
8dL	.
8A	<
8AJ	.
8dL	.
8d	.
8dJ	.
8c#XL	.
8c#	.
8c#J	[
=316	=316
8dL	.
8A	.
8AJ	.
8dL	.
8d	.
8dJ	.
8AL 8e	.
8A 8e	.
8AJ 8e	.
=317	=317
8fL	.
8A	.
8AJ	.
8AL	.
8A	.
8AJ	.
8B-L	.
8B-	.
8B-J	.
=318	=318
!!linebreak:original
8B-L	.
8B-	.
!	!LO:DY:a
8B-J	pp
8B-L	.
8b-	.
8b-J	.
(8b-L	.
8g	.
8eJ)	.
=319	=319
8c#XL	.
8c#	.
8c#J	.
8c#L	.
8c#	.
8c#J	.
8c#L	.
8c#	.
8c#J	.
=320	=320
(8c#XL	.
8d)	.
8d~J	.
(<8d~L	.
8d~	.
8d~J)	.
!	!LO:DY:a
(8dL	>
8c#	.
8dJ)	.
=321	=321
8dL	.
!LO:TX:b:Bi:t=Cresc.	!
8d	.
8dJ	.
8dL	.
8d	.
8dJ	.
8dL	]
8d	.
8dJ	.
=322	=322
4c#X	p
8r	.
8r	.
8aL	.
8gJ	.
8fL	.
8e	.
8dJ)	.
=323	=323
!!linebreak:original
4c#X	.
8r	.
(4a	.
8g	.
8fL	.
8e	.
8dJ)	.
=324	=324
4c#X	.
8r	.
4r	.
8r	.
4.f	pp
=325	=325
4e)	.
8r	.
4r	.
8r	.
4.B-	.
=326	=326
4A)	sf
8r	p
8r	.
!LO:TX:a:Bi:t=Cresc.	!
8c#XL	.
8dJ	.
8eL	.
8f	.
8gJ)	.
=327	=327
(8f~L	pp
8f~	.
8f~J)	.
(8dL	.
8d	.
8dJ)	.
8gL	.
8g	.
8gJ	.
=328	=328
8fL	.
8f	.
8fJ	.
8dL	.
8d	.
8dJ	.
8gL	.
8g	.
8gJ	.
=329	=329
!!linebreak:original
(4.a	.
4.b-	p
4.bn)	.
=330	=330
8ccL	.
8g	.
8gJ	.
8gL	.
8g	.
8gJ	.
8gL	.
8ee	.
8eeJ	.
=331	=331
[2.ee-X	.
(8ee-L]	.
8gg-X	.
8ffJ)	.
=332	=332
!LO:TX:b:Bi:t=Cresc.	!
4.ee-X	.
[4dd	.
8ddL]	.
8A-X 8f	.
8A-J 8f	.
=333	=333
8G 8e	.
(8bnL	pp
8ccJ	.
8f#XL	.
8g	.
8d#XJ	.
8eL	.
8Bn	.
8cJ)	.
=334	=334
[2.d-X	.
8d-L]	.
8d-'	.
8d-'J	.
=335	=335
!!linebreak:original
4c	.
8r	.
4r	.
8r	.
4r	.
8r	.
=336	=336
4r	.
8r	.
4ryy	.
8ryy	.
16r	.
(16cLL	.
16Bn	.
16c	.
16e	.
16gJJ	.
=337	=337
4a)	.
8r	.
4r	.
8r	.
16r	.
16cLL	.
16Bn	.
16c	.
16f	.
16aJJ	.
=338	=338
4b-)	.
8r	.
4r	.
8r	.
16r	.
!LO:TX:b:Bi:t=Cresc.	!
(16eLL	.
16cc	.
16bn	.
16cc	.
16bJJ)	.
=339	=339
(>4.cc	p
4.b-	.
8a	.
8qb-/	.
16aLL	.
16g	.
16a	.
16b-JJ)	.
=340	=340
!!linebreak:original
4g	.
8r	.
4r	.
8r	.
4r	.
8r	.
=341	=341
(>8ccL	.
16ffL	.
16ee	.
(>16dd	.
16ccJJ)	.
16ccLL	.
16b-	.
16gg	.
16ee	.
16cc	.
16b-JJ)	.
(16b-LL	.
16a	.
16ff	.
16cc	.
16b-	.
16aJJ)	.
=342	=342
(8gL	.
8c)	.
8c'J	.
(8aL	.
8c)	.
8c'J	.
(8b-L	.
8c)	.
8c'J	.
=343	=343
4c 4a	.
4r	.
4r	.
=344	=344
4r	.
8r	.
4d	.
16eLL	.
16f#XJJ)	.
[4.g	.
=345	=345
!!linebreak:original
(<16gLL_	.
16f	.
!LO:TX:a:Bi:t=Cresc.	!
16e	.
16f	.
16g	.
16fJJ	.
16eLL	.
16f	.
16g	.
16f	.
16e	.
16gJJ	.
4.f)	.
=346	=346
(<16d-XLL	.
16c	.
16d-	.
16c	.
16d-	.
16cJJ)	.
!	!LO:DY:a
(<4.Bn	sf
!	!LO:DY:a
4.B-X	>
=347	=347
4A)	.
!	!LO:DY:a
8r	p
16aaLL	.
16gg#X	.
16aa	.
16ggn	.
16ff	.
16eeJJ)	.
16ddLL	.
16cc#X	.
16dd	.
16ccn	.
16b-	.
16aJJ)	.
=348	=348
(<8gL	.
8e-X)	.
8e-'J	.
2.e-	.
=349	=349
!!linebreak:original
8d-XL	.
!LO:TX:b:Bi:t=Cresc.	!
8dd-X	.
8dd-'J	.
2.cc	.
=350	=350
(>16dd-XLL	.
16cc	.
16dd-	.
16cc	.
16dd-	.
16ccJJ)	.
[4.bn	sf
4.b-X	>
=351	=351
8aL	p
8A	.
8AJ	.
4A	.
8r	.
4r	.
8r	.
=352	=352
(>4.gg	.
16ff#XLL	.
16gg	.
16aa	.
16gg	.
(>16dd#X	.
16eeJJ)	.
16ffnLL	.
16ee	.
16bn	.
16cc	.
16ddn	.
16ccJJ)	.
=353	=353
(8cc~L	.
8cc~	.
8cc~J)	.
4cc	.
8r	.
4r	.
8r	.
=354	=354
8%9r	.
=355	=355
!!linebreak:original
4r	.
8r	pp
(4g	.
8f	.
4e	.
8G)	.
=356	=356
(4c	.
!LO:TX:a:Bi:t=Cresc.	!
16dLL	.
16eJJ)	.
[4.f	.
8fL]	.
(8f	.
8gJ)	.
=357	=357
4f	p
8g	.
4.f	<
4.e)	>
=358	=358
4c	pp
8r	.
4c	.
8r	.
4r	.
8r	.
=359	=359
4A 4f	.
8r	.
4a 4ff	.
8r	.
4.r	.
=360	=360
4A 4f#X	.
8r	.
4a 4ff#X	.
8r	.
4r	.
8r	.
=361	=361
(<4.d	.
4.g	.
4.a)	.
=362	=362
*^	*
[4.b-	8ryy	sf
.	8ryy	.
.	8ryy	.
(4b-]	8ryy	.
.	8ryy	.
16aLL)	8ryy	.
16gJJ	.	.
(16gLL	8ryy	.
32aL	.	.
32gJ	.	.
16f	8ryy	.
16g	.	.
*v	*v	*
16b-	.
16aJJ)	.
=363	=363
!!linebreak:original
4.g	sf
(<[4.f#X	.
8f#L]	.
16f#L	.
16g	.
16a	.
16b-JJ)	.
=364	=364
(>[4.cc	sf
4cc]	.
16ddLL	.
16ccJJ	.
16bnLL	.
16cc	.
16dd	.
16cc	.
16ee-X)	.
16ddJJ	.
=365	=365
4.cc	sf
[4bn	.
(>8bL]	.
16bL	.
16cc	.
16dd)	.
16ee-XJJ	.
=366	=366
[4.ff	.
8ffL]	.
(16ffL	.
16dd	.
16bn	.
16gJJ	.
16f#XLL	.
16g	.
16a-X	.
16g	.
16fn	.
16dJJ)	.
=367	=367
(>8c'L 8e-X	.
8c' 8e-	.
8c'J 8e-	.
4.c) 4.e-	.
4.c 4.e-	.
=368	=368
!!linebreak:original
4.c 4.e-X	.
4.c 4.e-	.
4.c 4.e-	.
=369	=369
4.c 4.d	.
4.c 4.d	.
4.c 4.d	.
=370	=370
4.B- 4.d	.
4.B- 4.d	.
4.B- 4.d	.
=371	=371
4.g	.
!LO:TX:b:Bi:t=Cresc.	!
4.g 4.b-	.
4.f 4.b-	.
=372	=372
4g 4b-	f
8r	.
4r	.
!LO:TX:a:Bi:t=Cresc.	!
8r	.
4r	.
8r	.
=373	=373
4f 4a	.
8r	p
4r	.
8r	.
4r	.
8r	.
=374	=374
4d	.
8r	.
4r	.
8r	.
!	!LO:DY:a
4r	pp
8r	.
=375	=375
4c#X	.
8r	.
4r	.
8r	.
4r	.
8r	.
=376	=376
!!linebreak:original
16r	.
!	!LO:DY:a
16ALL	pp
16B-	.
16A	.
16B-	.
16AJJ)	.
16r	.
16ALL	.
16d	.
16A	.
16d	.
16AJJ)	.
16r	.
(16ALL	.
16c#X	.
16A)	.
16c#	.
16AJJ	.
=377	=377
16r	.
16ALL	.
!LO:TX:a:Bi:t=Cresc.	!
16B-	.
16A	.
16B-	.
16AJJ)	.
16r	.
16ALL	.
16d	.
16A	.
16d	.
16AJJ)	.
16r	.
(16ALL	.
16c#X	.
16A)	.
16c#	.
16AJJ	.
=378	=378
16r	.
16ALL	.
!	!LO:DY:a
16B-	pp
16A	.
16B-	.
16AJJ)	.
16r	.
16ALL	.
16d	.
16A	.
16d	.
!	!LO:DY:a
16AJJ)	ppp
16r	.
(16ALL	.
16e	.
16A	.
16e	.
16AJJ)	.
=379	=379
!!linebreak:original
16r	.
16fLL	p
16a	.
16f	.
16a	.
16fJJ)	.
16r	.
16fLL	.
16a	.
16f	.
16a	.
16fJJ	.
16r	.
16fLL	.
16b-	.
16f	.
16b-	.
16fJJ)	.
=380	=380
(<32gLLL	f
32f#X	.
32g	.
32f#	.
32g	.
32f#	.
32g	.
32aJJ	.
8b-'J)	.
32gLLL	.
32f#	.
32g	.
32f#	.
32g	.
32f#	.
32g	.
32aJJ	.
8b-'J)	.
32gLLL	.
32f#	.
32g	.
32a	.
32b-	.
32a	.
32b-	.
32a	.
32g	.
32fn	.
32e)	.
32dJJJ	.
=381	=381
!!linebreak:original
!	!LO:DY:a
(<16c#X'	p
16c#LL	.
16b-	.
16c#	.
16b-	.
16c#JJ	.
16r	.
16c#LL	.
16b-	.
16c#	.
16b-	.
16c#JJ)	.
16r	.
(16c#LL	.
16b-	.
16c#	.
16b-	.
16c#JJ)	.
=382	=382
(32aLLL	f
32g#X	.
32a	.
32g#	.
32a	.
32gn	.
32f	.
32eJJ	.
8d'J)	.
32aLLL	.
32g#X	.
32a	.
32g#	.
32a	.
32gn	.
32f	.
32eJJ	.
8d'J)	.
32aLLL	.
32g#X	.
32a	.
32g#	.
32a	.
32gn	.
32f	.
32eJJ	.
8d'J)	.
=383	=383
!!linebreak:original
16r	p
16dLL	.
16e	.
16d	.
16e	.
16dJJ)	.
16r	.
16dLL	.
16e	.
16d	.
16e	.
16dJJ)	.
16r	.
(16dLL	.
16f	.
16d	.
16f	.
16dJJ)	.
=384	=384
4c#X	.
8r	.
8r	.
8aL	.
8gJ	.
8fL	.
8e	.
8dJ)	.
=385	=385
4c#X	.
8r	.
4a	.
8g	<
8fL	[
8e	>
8dJ)	.
=386	=386
4c#X	]
8r	.
4r	.
8r	.
(4.f	pp
=387	=387
4e)	.
8r	.
4r	.
8r	.
(4.B-	.
=388	=388
!	!LO:DY:a
8AL)	sf
!LO:TX:a:Bi:t=Cresc.	!LO:DY:a
8c#X	p
8eJ	.
8aL	.
8c#	.
8dJ	.
8eL	.
8f#X	.
8gJ)	.
=389	=389
!!linebreak:original
(8f#XL	p
8A)	.
8A'J	.
(8eL	.
8A)	.
8A'J	.
(8dL	.
8A)	.
8A'J	.
=390	=390
(8c#XL	.
8A)	.
8A'J	.
(8dL	.
8A)	.
8A'J	.
(8eL	.
8A)	.
8A'J	.
=391	=391
(8f#XL	.
8A)	.
8A'J	.
(8c#XL	.
8A)	.
8A'J	.
(8dL	.
8A)	.
8A'J	.
=392	=392
(8c#XL	.
8A)	.
8AJ	.
(8dL	.
8A)	.
8A'J	.
(8eL	.
8A)	.
8A'J	.
=393	=393
4A	.
8r	.
4r	.
8r	.
4r	.
8r	.
=394	=394
4r	.
8r	.
4Bn	.
16c#XLL	.
16dJJ	.
8.eL	.
16BL	.
16c#	.
16dJJ)	.
=395	=395
!!linebreak:original
!LO:TX:a:Bi:t=Cresc.	!
(16eLL	.
16d)	.
16c#X	.
16d	.
16e	.
16dJJ	.
16c#LL	.
16d	.
16e	.
16d	.
16c#	.
16eJJ	.
4.d)	.
=396	=396
(16B-LL	.
16A	.
16B-	.
16A	.
16B-	.
16AJJ)	.
!	!LO:DY:a
(4.G#X	sf
!	!LO:DY:a
4Gn	>
8g)	.
=397	=397
4f#X	p
8r	.
(16ffLL	.
16ee#X	.
16ff	.
16een	.
16dd	.
16cc#XJJ	.
16b-LL	.
16a#X	.
16b-	.
16an	.
16g	.
16f#JJ)	.
=398	=398
4.e	.
(<[4.a	.
8.aL]	.
16f#XL	.
16g	.
16aJJ)	.
=399	=399
(4.b-	.
!LO:TX:b:Bi:t=Cresc.	!
[4.a)	.
8aL]	.
8a'	.
8a'J	.
=400	=400
!!linebreak:original
(16b-LL	.
16a	.
16b-	.
16a	.
16b-	.
16aJJ)	.
!	!LO:DY:a
4.g#X	sf
!	!LO:DY:a
4.gn	>
=401	=401
8f#XL	p
8A	.
8AJ	.
4A	.
8r	.
4r	.
8r	.
=402	=402
4.ee	.
(16dd#XLL	.
16ee)	.
(16ff#X	.
16ee)	.
16b#X	.
16cc#XJJ)	.
(16ddnLL	.
16cc#)	.
(16g#X	.
16a)	.
(16bn	.
16aJJ)	.
=403	=403
8a'L	.
8a'	.
8a'J	.
4a	.
8r	.
4r	.
8r	.
=404	=404
8%9r	.
=405	=405
!!linebreak:original
4r	.
8r	.
4e	pp
8d	.
4c#X	.
8c#'	.
=406	=406
4A	.
!LO:TX:a:Bi:t=Cresc.	!
(<16BnLL	.
16c#XJJ	.
[4.d	.
8dL]	.
8d)	.
8eJ)	.
=407	=407
(<4d	.
8e	.
4.d)	.
4.c#X	]
=408	=408
*^	*
16dLL	4ryy	]
!	!	!LO:DY:a
16AJJ 16d	.	pp
16ALL 16d	.	.
16AJJ 16d	.	.
*v	*v	*
16ALL 16d	.
16AJJ 16d	.
4.A 4.d	.
4.c#X	.
=409	=409
4.f	p
!LO:TX:a:Bi:t=Cresc.	!
4.A 4.d	.
4.c#X	.
=410	=410
4.f	.
4.A 4.d	.
4.c#X	.
=411	=411
4.A 4.f	fp
4.A 4.f	.
4.B- 4.f	.
=412	=412
!!linebreak:original
(<16B-	f
32gLLL	.
32f#X	.
32g	.
32f#	.
32g	.
32aJJ	.
8bn'J)	.
32gLLL	.
32f#	.
32g	.
32f#	.
32g	.
32f#	.
32g	.
(<32aJJ	.
8b'J)	.
32gLLL	.
32f#	.
32g	.
32a	.
32b	.
32a	.
32b	.
32a	.
32g	.
32f#	.
32e-X	.
32d'JJJ)	.
=413	=413
8c#X'L	p
8gg'	.
8ee'J	.
!LO:TX:b:Bi:t=Cresc.	!
8cc#X'L	.
8g'	.
8e'J	.
8c#'L	.
8G'	.
8bn'J	.
=414	=414
!!linebreak:original
(32aLLL	f
32g#X	.
32a	.
32g#JJJ	.
32aLLL	.
32gn	.
32f#X	.
32eJJJ	.
8d')	.
32aLLL	.
32g#X	.
32a	.
32g#JJJ	.
32aLLL	.
32gn	.
32f#	.
32eJJJ	.
8d')	.
32aLLL	.
32g#X	.
32a	.
32g#JJJ	.
32aLLL	.
32gn	.
32f#	.
32eJJJ	.
32dLLL	.
32e	.
32f#)	.
32dJJJ	.
=415	=415
4G 4e-X	f
8r	.
4r	.
8r	.
4r	.
8r	.
=416	=416
4A 4f#X	f
8r	.
4r	.
8r	.
4r	.
8r	.
=417	=417
4B- 4g	f
8r	.
4r	.
8r	.
4r	.
8r	.
=418	=418
!!linebreak:original
[4.d 4.dd	ff
4.d] 4.dd	.
(16B-LL	p
16A)	.
(16A'	.
16A')	.
16A	.
16AJJ	.
=419	=419
4A	.
8r	.
4r	.
8r	.
4r	.
8r	.
=420	=420
(16gLL	.
16b-	<
16cc#X	.
16b-	>
16cc#	.
16gJJ)	.
4f	]
8r	.
4r	.
8r	.
=421	=421
(16gLL	.
16b-	<
16cc#X	.
16b-	[
16cc#	>
16gJJ)	.
8fL	]
(8a'	.
8a'J)	.
(8aL	.
8f	.
8dJ)	.
=422	=422
([2.c#X	<
4.c#]	>
=423	=423
4A)	pp
8r	.
4A	.
8r	.
4r	.
8r	.
==424	==424
!!linebreak:original
*M3/4	*
!LO:TX:a:B:t=Allegro	!
[2.c	p
=425	=425
(<2c]	.
4d')	.
=426	=426
[2.d	.
=427	=427
2d]	.
4e'	.
=428	=428
(<2e	.
4g#X	.
=429	=429
4a')	.
4r	.
4r	.
=430	=430
2.bnt	.
(16qqa/LL	.
16qqb/JJ)	.
=431	=431
4cc	.
4r	.
4r	.
=432	=432
2.Bnt	f
(16qqA/LL	.
16qqB/JJ)	.
=433	=433
4c	.
4r	.
4r	.
=434:|!|:	=434:|!|:
!!linebreak:original
(<2c	p
4a-X)	.
=435	=435
(<2g	.
4g')	.
=436	=436
(<4g	.
4a-X)	.
4a-'	.
=437	=437
(<2c	.
4f')	.
=438	=438
(2e	.
4e')	.
=439	=439
(<4e	.
4f)	.
4f'	.
=440	=440
[2.dd-X	.
=441	=441
4dd-]	.
4cc'	.
4ddn'	.
=442	=442
[2.ee-X	.
=443	=443
4ee-]	.
4dd'	.
4een'	.
=444	=444
[2.ff	.
=445	=445
!!linebreak:original
4ff]	.
4ee'	.
(>4ff'	.
=446	=446
[2.gg	.
=447	=447
4gg]	.
4ff)	.
4ff'	.
=448	=448
4ee	.
4r	.
4r	.
=449	=449
4ff	.
4r	.
4r	.
=450	=450
4ee	.
4r	.
4r	.
=451	=451
4f	.
4r	.
4r	.
=452	=452
4c'	pp
4e'	.
4f'	.
=453	=453
4g'	.
4r	.
4r	.
=454	=454
4cc'	.
4ee'	.
4ff'	.
=455	=455
4gg'	.
4r	.
4r	.
=456	=456
!!linebreak:original
4e'	.
4g'	.
4a'	.
=457	=457
4b-'	.
4r	.
4r	.
=458	=458
4ee'	.
4gg'	.
4aa'	.
=459	=459
4bb-'	.
4G	.
4G	.
=460	=460
!LO:TX:a:Bi:t=Cresc.	!
(<2A	.
4A-X	.
=461	=461
2G)	.
[4c	.
=462	=462
(<4c]	.
4Bn	.
4B-X)	.
=463	=463
2A	.
[4d	.
=464	=464
(<4d]	.
4c	.
4g#X	.
=465	=465
4a'	.
4r	.
4r	.
=466	=466
(>2a	pp
4cc#X)	.
=467	=467
!!linebreak:original
(4dd'	.
4r	.
4r	.
=468	=468
(2cc	ppp
4ee	.
=469	=469
4ff')	.
4r	.
4r	.
=470	=470
2.eet	.
(16qqdd/LL	.
16qqee/JJ)	.
=471	=471
4ff	.
4r	.
4r	.
=472	=472
2.et	.
(16qqd/LL	.
16qqe/JJ)	.
=473	=473
4f	.
4r	.
4r	.
=474	=474
4r	sf
2B-	.
=475	=475
4A)	.
4r	.
4r	.
=476	=476
4r	sf
2B-	.
=477	=477
4A)	.
4r	.
4r	.
=478	=478
4r	sf
(<2B-	.
=479	=479
!!linebreak:original
4A)	.
(4cc'	.
4cc')	.
=480	=480
2.e-X'T	sf
(16qqd/LL	.
16qqe-/JJ)	.
=481	=481
4d	.
4r	.
4r	.
=482	=482
4e	.
4r	.
4r	.
=483	=483
4f	.
(4cc'	.
4cc')	.
=484	=484
2.e-X'T	.
(16qqd/LL	sf
16qqe-/JJ)	.
=485	=485
4d	.
4r	.
4r	.
=486	=486
4e	.
4r	.
4r	.
=487	=487
!LO:TX:b:Bi:t=Cresc.	!
(>2a	.
4a-X	.
=488	=488
2g	.
4cc)	.
=489	=489
(>4b-'	.
4dd')	.
[4ee	.
=490	=490
!!linebreak:original
4ee]	.
(4dd'	.
4dd')	.
=491	=491
(>4cc	.
4cc#X	.
4dd	.
=492	=492
4ee	.
4ff	.
4gg	.
=493	=493
4ff')	.
4ff#X	f
4gg	.
=494	=494
4aa	.
4bb-	.
4ccc)	.
=495	=495
(4bb-	.
4gg	.
4ffn	.
=496	=496
4ee')	.
4bb-	.
4aa	.
=497	=497
4gg	.
4ff	.
4ee	.
=498	=498
4dd	.
4cc	.
4b-)	.
=499	=499
!!linebreak:original
(>4a	.
4e	.
4f	.
=500	=500
4d	.
4g)	.
4B-'	.
=501	=501
4A'	.
4A'	.
4Bn	sf
=502	=502
2.c	.
=503	=503
4f'	.
4a'	.
4bn	sf
=504	=504
[2.cc	.
=505	=505
4cc]	.
[2cc	sf
=506	=506
4cc]	.
[2cc	sf
=507	=507
4cc]	.
4a'	.
4a'	.
=508	=508
4f'	.
4r	.
4r	.
=509:|!|:	=509:|!|:
!!linebreak:original
16qbn/	ff
4cc'	.
4r	.
4c'	.
=510	=510
16qbn/	.
4cc'	.
4r	.
4c'	.
=511	=511
16qbn/	.
4cc'	.
4c'	.
4cc	.
=512	=512
4c'	.
4cc'	.
4c'	.
=513	=513
2.A-X 2.f	p
=514	=514
[2.A-X [2.f	sf
=515	=515
2.A-_ 2.f_	.
=516	=516
(<2A 2f]	.
4A-X') 4g-X	.
=517	=517
2.A-X 2.f	.
=518	=518
!!linebreak:original
[2.A-X [2.f	.
=519	=519
2.A-_ 2.f_	.
=520	=520
2A-_ 2f]	.
4A-'] 4g-X	.
=521	=521
(<4A-X' 4f	.
4d-X'	.
4d-')	.
=522	=522
(<4d-X	.
4c	.
4Bn)	.
=523	=523
4c	.
4r	.
4c	.
=524	=524
4f	.
4r	.
4r	.
=525:|!	=525:|!
[2.an	pp
=526	=526
2.a_	.
=527	=527
2.a_	.
=528	=528
2.a]	.
=529	=529
!	!LO:DY:a
[2.a-X	sf
=530	=530
!!linebreak:original
!	!LO:DY:a
2.a-_	p
=531	=531
2.a-_	.
=532	=532
2.a-]	.
=533	=533
[2.b-	.
=534	=534
2.b-]	.
=535	=535
(<2.a-X	.
=536	=536
2.a)	.
=537	=537
4g	.
4r	.
4r	.
=538	=538
2.r	.
=539	=539
2.r	.
=540	=540
2.r	.
=541	=541
16qbn/	p
4cc'	.
4r	.
!LO:TX:a:Bi:t=Cresc.	!
4c'	.
=542	=542
16qbn/	.
4cc'	.
4r	.
4c'	.
=543	=543
16qbn/	.
4cc'	.
4c'	.
4cc'	.
=544	=544
!!linebreak:original
4c#X'	.
4cc#X'	.
4c#'	.
=545	=545
2.d	.
=546	=546
[2.B-	fp
=547	=547
2.B-_	.
=548	=548
(<2B-]	.
4c')	.
=549	=549
2.B-	.
=550	=550
[2.B-	fp
=551	=551
2.B-_	.
=552	=552
(<2B-]	.
4c')	.
=553	=553
2.Bn	.
=554	=554
[2.Bn	fp
=555	=555
[2.B-	.
=556	=556
(<2B-]	.
4c')	.
=557	=557
!!linebreak:original
2.Bn	.
=558	=558
[2.Bn	fp
=559	=559
[2.B-	.
=560	=560
(2B-]	.
4c')	.
=561	=561
2.G 2.e	.
=562	=562
[2.G [2.e	fp
=563	=563
2.G_ 2.e_	.
=564	=564
(<2G] 2e]	.
4A') 4f	.
=565	=565
2.G 2.e	.
=566	=566
[2.G [2.e	fp
=567	=567
4G] 4e]	.
4r	.
4r	.
=568	=568
!LO:TX:B:t=Scherzo D.C.	!
2.r	.
==569	==569
!!linebreak:original
*M2/4	*
!LO:TX:a:B:t=Allegro	!
2r	.
=570	=570
!	!LO:DY:a
8B-'L	p
8B-'	.
8B-'J	.
8r	.
=571	=571
2r	.
=572	=572
8c'L	.
8c'	.
8A'J	.
8r	.
=573	=573
8r	.
8gL	.
8c	.
8aJ)	.
=574	=574
8r	.
8gL	.
8c	.
8aJ)	.
=575	=575
8r	.
8gL	.
8c	.
8aJ)	.
=576	=576
(<8gL	.
8bn	.
8gJ)	.
8r	.
=577	=577
2r	.
=578	=578
8c'L	.
8c'	.
8b-'J	.
8r	.
=579	=579
2r	.
=580	=580
!!linebreak:original
8c'L	.
8c'	.
8cc'J	.
8r	.
=581	=581
8r	.
(8g	.
8cL	.
8aJ)	.
=582	=582
8r	.
(8gL	.
8c	.
8aJ)	.
=583	=583
8r	.
(8gL	.
8c)	.
8cc'J	.
=584	=584
8b-'L	.
8b-'	.
8a'	.
8f'J	.
=585	=585
4f	f
4B-	.
=586	=586
4A	.
4r	.
=587	=587
4r	p
(16ALL	.
16c	.
16g	.
16fJJ)	.
=588	=588
4e	.
4r	.
=589	=589
4r	.
(<16cLL	.
16e	.
16a	.
16gJJ)	.
=590	=590
4f	.
4r	.
=591	=591
2r	.
=592	=592
!!linebreak:original
4r	.
8r	.
(8a	.
=593	=593
8g'L)	.
(8e'	.
8g'	.
8e'J)	.
=594	=594
(4g	.
8f)	.
8a'	f
=595	=595
4.A	sf
(24ALL	.
24B-	.
24c#XJJ)	.
=596	=596
8d'L	.
8e'J	.
8f'L	.
8g'J	.
=597	=597
8a'L	.
8bn'	.
8cc'	.
8cc#X'J	.
=598	=598
8dd'L	.
8ee'J	.
(16qqdd/LL	.
16qqee/JJ	.
[4ff)	.
=599	=599
(8ffL]	.
8ee)	.
8ddM	.
8ccJ)	.
=600	=600
(8b-ML	.
8a)	.
(8gM	.
8fJ)	.
=601	=601
(8emL	.
8d)	.
(8a'	.
8A'J)	.
=602	=602
!!linebreak:original
8d	.
8r	.
16dLL	p
16f	.
16a	.
16fJJ)	.
=603	=603
8e	.
8r	.
4r	.
=604	=604
4r	.
16aLL	.
16cc#X	.
16ff	.
16eeJJ)	.
=605	=605
8dd	.
8r	.
4r	.
=606	=606
(<16ALL	.
16d	.
16f	.
16eJJ	.
16dLL	.
16f	.
16b-)	.
16aJJ	.
=607	=607
8g#X	.
8r	.
4r	.
=608	=608
(16eLL	.
16g#X	.
16bn	.
16aJJ	.
16g#LL	.
16b-X	.
16ee	.
16ddJJ)	.
=609	=609
16r	.
!LO:TX:b:Bi:t=Cresc.	!
16eLL	.
16dd	.
16ccJJ)	.
16r	.
16aLL	.
16dd	.
16cc#XJJ	.
=610	=610
!!linebreak:original
16r	.
(16aLL	.
16ee	.
16ddJJ)	.
16r	.
16aLL	.
16dd)	.
16ccJJ	.
=611	=611
8bn	p
8r	.
4r	.
=612	=612
8r	.
8d'L	.
8d'	.
8d'J	.
=613	=613
(<4.g	.
32aLLL	.
32g	.
32f#X	.
32eJJJ)	.
=614	=614
(8d'L	.
8d')	.
8d'	.
8d'J	.
=615	=615
4d	.
4r	.
=616	=616
8r	.
8d'L	.
8d'	.
8d'J	.
=617	=617
!LO:TX:b:Bi:t=Cresc.	!
(<16aLL	.
16g	.
16f#X	.
16gJJ	.
16aLL	.
16g	.
16fn	.
16e-XJJ)	.
=618	=618
(8f'L	.
8f'J)	.
8f'L	.
8f'J	.
=619	=619
4e	p
4r	.
=620	=620
!!linebreak:original
8r	.
8g'L	.
8g'	.
8g'J	.
=621	=621
(4.cc	.
32ddLLL	.
32cc	.
32bn	.
32aJJJ)	.
=622	=622
(8g'L	.
8g')	.
8g'	.
8g'J	.
=623	=623
4g	.
4r	.
=624	=624
8r	.
8g'L	.
8g'	.
8g'J	.
=625	=625
!LO:TX:b:Bi:t=Cresc.	!
(>16ddLL	.
16cc	.
16bn	.
16ccJJ	.
16ddLL	.
16cc	.
16b)	.
16aJJ	.
=626	=626
(8g'L	.
8g')	.
8g'	.
8g'J	.
=627	=627
8g	p
8r	.
8r	.
[8g	.
=628	=628
(8gL]	.
8ccJ)	.
8r	.
[8e	.
=629	=629
(8eL]	.
8aJ)	.
8r	.
[8c	.
=630	=630
!!linebreak:original
8c]	.
8r	.
4r	.
=631	=631
8r	.
8a	.
8r	.
8a	.
=632	=632
8r	.
8g	.
8r	.
8f	.
=633	=633
(16aLL	.
16g	.
16f#X	.
16gJJ	.
16aLL	.
16g	.
16fn	.
16dJJ)	.
=634	=634
(16fLL	.
16e	.
16d#X	.
16eJJ	.
16fLL	.
16e	.
16dn	.
16BnJJ)	.
=635	=635
8c	.
8r	.
8r	.
[8cc	.
=636	=636
(8ccL]	.
8ffJ)	.
8r	.
[8a	.
=637	=637
(>8aL]	.
!LO:TX:b:Bi:t=Cresc.	!
8aa)	.
8aa'	.
8aa'J	.
=638	=638
(>4aa	.
8ggL)	.
8ffJ	.
=639	=639
!!linebreak:original
(>8ee'	p
8eeL	sf
8ff)	.
8ddJ)	.
=640	=640
(>8gg'	.
8eeL	sf
8ff)	.
8ddJ)	.
=641	=641
(>8ggL	.
8ee	.
8cc	.
8aJ	.
=642	=642
8gL	.
8e	.
8f	.
8dJ)	.
=643	=643
(<16e-X'LL	.
(16g	.
16ee-X	sf
16ccJJ)	.
(16ccLL	.
16bn	.
(>16a	.
16bJJ)	.
=644	=644
16cc'LL	.
(16g	.
16ee-X	sf
16ccJJ)	.
16ccLL)	.
16bn	.
16a	.
16bJJ	.
=645	=645
8ccL)	.
16e-XL	.
16cJJ	.
16fLL	.
16dJJ)	.
8r	.
=646	=646
(>16e-XLL	.
16cJJ)	.
8r	.
16dLL	.
16BnJJ	.
8r	.
=647	=647
!!linebreak:original
(24gLL	p
24f#X	.
24gJJ	.
24a-XLL	.
24g	.
24f#JJ)	.
[4g	.
=648	=648
(<24gLL]	.
24f#X	.
24gJJ	.
24a-XLL	.
24g)	.
24f#JJ	.
[4g	.
=649	=649
(<24gLL]	.
24f#X	.
24gJJ	.
24a-XLL	.
24g	.
24f#JJ)	.
[4g	.
=650	=650
8gL]	.
8g'	.
8g'	.
!LO:TX:a:Bi:t=Cresc.	!
8g'J	.
=651	=651
(4.cc	.
!LO:TX:b:Bi:t=Cresc.	!
8ee)	.
=652	=652
(>4.ff	.
8dd)	.
=653	=653
(4.ee	.
8cc)	.
=654	=654
(>8.ddL	.
(<16bnJk	.
8.btL)	.
32aLL	.
32bJJJ)	.
=655	=655
!!linebreak:original
!LO:TX:b:Bi:t=Cresc.	!
(>24ccLL	.
24bn	.
24ccJJ	.
24ddLL	.
24cc	.
24bJJ)	.
[4cc	.
=656	=656
(>24ccLL]	.
24bn	.
24ccJJ	.
24ddLL	.
24cc	.
24bJJ)	.
[4cc	.
=657	=657
(24ccLL]	.
24a	.
24b-JJ	.
24ccLL	.
24dd	.
24eeJJ	.
24ffLL	.
24ee	.
24ddJJ	.
24ccLL	.
24b-	.
24aJJ)	.
=658	=658
(>24b-LL	f
24cc	.
24ddJJ	.
24ccLL	.
24b-	.
24aJJ	.
24gLL	.
24f	.
24eJJ	.
24dLL	.
24c	.
24B-JJ)	.
=659	=659
8A	p
8r	.
4r	.
=660	=660
8B-'L	.
8B-'	.
8B-'J	.
8r	.
=661	=661
2r	.
=662	=662
!!linebreak:original
8c'L	.
8c'	.
8A'J	.
8r	.
=663	=663
8r	.
(>8gL	.
8c	.
8aJ	.
=664	=664
8r	.
(>8gL	.
8c	.
8aJ)	.
=665	=665
8r	.
8gL	.
(>8c	.
8aJ)	.
=666	=666
(>8gL	.
8bn	.
8gJ)	.
8r	.
=667	=667
2r	.
=668	=668
4r	.
8b-'L	p
8b-'J	.
=669	=669
8e'	.
8r	.
4r	.
=670	=670
4r	.
8ee-X'L	.
8ee-'J	.
=671	=671
!LO:TX:b:Bi:t=Cresc.	!
8f#X	.
8r	.
8ee-XL	.
8ee-J	.
=672	=672
8dd	.
8r	.
8ccL	.
8ccJ	.
=673	=673
8b-	.
8r	.
8b-L	.
8b-J	.
=674	=674
!!linebreak:original
8a'	.
8r	.
8gL	.
8gJ	.
=675	=675
8f	f
8r	.
8dL	.
8dJ	.
=676	=676
8f	.
8r	.
8G#XL	.
8G#J	.
=677	=677
8A	.
8r	.
4r	.
=678	=678
24b-LL	sf
24a	.
24b-JJ	.
24ccLL	.
24b-	.
24aJJ	.
24gLL	.
24f#X	.
24gJJ	.
24aLL	.
24g	.
24fnJJ	.
=679	=679
8e'L	.
8d'	.
8c#X'J	.
8r	.
=680	=680
(24b-LL	sf
24a	.
24b-JJ	.
24ccLL	.
24b-	.
24aJJ	.
24gLL	.
24f#X	.
24gJJ	.
24aLL	.
24g	.
24fnJJ)	.
=681	=681
!!linebreak:original
8e'L	.
8d'	.
8c#X'J	.
8r	.
=682	=682
!LO:TX:b:Bi:t=Cresc.	!
(<24b-LL	.
24a	.
24b-JJ	.
24ccLL	.
24b-	.
24aJJ	.
24gLL	.
24f#X	.
24gJJ	.
24aLL	.
24g	.
24fnJJ)	.
=683	=683
(<24eLL	.
24d#X	.
24eJJ	.
24fLL	.
24e)	.
24dnJJ	.
8c#X'L	.
8d'J	.
=684	=684
8c#X'L	f
8c#'	.
8d'	.
8e'J	.
=685	=685
8f	sf
8r	.
4r	.
=686	=686
2r	.
=687	=687
2r	.
=688	=688
2r	.
=689	=689
24ddLL	sf
24cc#X	.
24ddJJ	.
24ee-XLL	.
24dd	.
24ccnJJ	.
24b-LL	.
24a	.
24b-JJ	.
24ccLL	.
24b-	.
24aJJ	.
=690	=690
!!linebreak:original
(8g'L	.
8g')	.
8g'	.
8g'J	.
=691	=691
8f#XL	.
8d'J	p
8e'L	.
8f#'J	.
=692	=692
8g'L	.
8a'	.
8b-'	.
8bn'J	.
=693	=693
8cc	.
8r	.
4r	.
=694	=694
2r	.
=695	=695
2r	.
=696	=696
2r	.
=697	=697
4r	.
[4f	sf
=698	=698
(>4.f]	.
48a-XLLL	.
48b-	.
48cc	.
48dd-X	.
48ee-X	.
48ffJJJ	.
=699	=699
!LO:TX:b:Bi:t=Cresc.	!
4.gg-X)	.
8ff	.
=700	=700
8ee-X'L	.
8dd-X'	.
8cc'	.
8cc'J	.
=701	=701
8dd-X	ff
8a-XL	pp
8a-	.
8a-J	.
=702	=702
8a-XL	.
8a-	.
8a-	.
8a-J	.
=703	=703
8a-XL	.
8a-	.
8a-	.
8a-J	.
=704	=704
!!linebreak:original
8a-XL	.
8a-	.
8a-	.
8a-J	.
=705	=705
(<8a-XL	.
8gJ)	.
[4a-	.
=706	=706
(8a-L]	.
8gJ)	.
[4a-X	.
=707	=707
(<8a-L]	.
8gJ)	.
[4a-X	.
=708	=708
(8a-L]	.
8gJ)	.
[4a-X	.
=709	=709
(8a-L]	.
8gJ)	.
[4a-X	.
=710	=710
(8a-L]	.
8gJ)	.
[4a-X	.
=711	=711
8a-]	.
8fL	sf
8f	.
8fJ	.
=712	=712
8f	.
8fL	sf
8f	.
8fJ	.
=713	=713
8f	.
8f#XL	sf
8f#	.
8f#J	.
=714	=714
!!linebreak:original
8f#X	.
8f#L	sf
8f#	.
8f#J	.
=715	=715
8f#X	.
8f#L	sf
8f#	.
8f#J	.
=716	=716
8f#X	.
8gL	sf
8g	.
8gJ	.
=717	=717
8g	.
8gL	sf
8g	.
8gJ	.
=718	=718
8g	.
8r	.
4r	.
=719	=719
2r	.
=720	=720
4r	.
8r	.
8e	p
=721	=721
4.f	.
8d	.
=722	=722
4.Bn	.
8d	.
=723	=723
4.c	.
8e)	.
=724	=724
4.g	.
[8g	.
=725	=725
(8gL]	.
8f#XJ)	.
[4g	.
=726	=726
(8gL]	.
8f#XJ)	.
[4g	.
=727	=727
!!linebreak:original
8g]	.
8r	.
4r	.
=728	=728
2r	.
=729	=729
2r	.
=730	=730
2r	.
=731	=731
[2f	sf
=732	=732
(>8fL]	.
(32gLL	.
32a-X	.
32b-	.
32ccJJJ	.
8dd-X'L)	.
8dd-'J)	.
=733	=733
(>4dd	sf
8ccL)	.
8b-'J	p
=734	=734
8a-X'L	.
8g'	.
8f'	.
8e-X'J	.
=735	=735
8d-X'L	.
8dd-X'	.
8b-'	.
8a-X'J	.
=736	=736
8gL	.
8f	.
8e-X	.
8d-XJ	.
=737	=737
8cL	.
8ee-X	.
8cc	.
8b-J	.
=738	=738
8a-XL	.
8g-X	.
8f	.
8e-XJ	.
=739	=739
!!linebreak:original
(>8d-X	.
(40a-XLLL	.
40b-	.
40cc	.
40dd-X	.
40ee-XJJJ	.
8ff'L)	.
8ff'J)	.
=740	=740
(>4ff	sf
8ee'L)	.
8ff'J	.
=741	=741
8gg'	.
(32ccLLL	.
32dd	.
32ee	.
32ffJJJ	.
8gg'L)	.
8gg'J)	.
=742	=742
(>4gg	sf
8ff'L)	.
8gg'J	.
=743	=743
8aa-X	f
4aa-	.
[8aa-	.
=744	=744
8aa	.
(4aa-X~	.
8aa-')	.
=745	=745
(>24ggLL	.
24ff#X	.
24ggJJ	.
24aa-XLL	.
24gg	.
24ffnJJ	.
24eeLL	.
24dd#X	.
24eeJJ	.
24ffLL	.
24ee	.
24ddnJJ)	.
=746	=746
!!linebreak:original
8cc	.
8f'L 8bn	.
8f' 8b	.
8f'J 8b	.
=747	=747
8e 8cc	.
8r	.
4r	.
=748	=748
2r	.
=749	=749
(>24ggLL	.
24ff#X	.
24ggJJ	.
24aa-XLL	.
24gg	.
24ffnJJ	.
24eeLL	.
24dd#X	.
24eeJJ	.
24ffLL	.
24ee)	.
24ddnJJ	.
=750	=750
8ccL	.
8f'J 8bn	.
8f'L 8b	.
8f'J 8b	.
=751	=751
8e 8cc	.
8r	.
4r	.
=752	=752
8r	.
8a-XL	f
8a-	.
8a-J	.
=753	=753
8g	.
8gL	pp
8g	.
8gJ	.
=754	=754
8gL	.
8g	.
8g	.
8gJ	.
=755	=755
!!linebreak:original
8a-XL	.
8a-	.
8a-	.
8a-J	.
=756	=756
8a-XL	.
8a-	.
8a-	.
8a-J	.
=757	=757
8aL	.
8a	.
8a	.
8aJ	.
=758	=758
8aL	.
8a	.
8a	.
8aJ	.
=759	=759
8a	.
8aL	pp
8a	.
8aJ	.
=760	=760
8aL	.
8a	.
8a	.
8aJ	.
=761	=761
(8aL	.
8g#XJ)	.
[4a	.
=762	=762
(8aL]	.
8g#XJ)	.
[4a	.
=763	=763
(8aL]	.
8g#XJ)	.
[4a	.
=764	=764
(<8aL]	.
8g#XJ)	.
[4a	.
=765	=765
!LO:TX:b:Bi:t=Cresc.	!
(8aL]	.
8g#XJ)	.
[4a	.
=766	=766
!!linebreak:original
(8aL]	.
8g#XJ)	.
[4a	.
=767	=767
8a]	.
8f#XL	sf
8f#	.
8f#J	.
=768	=768
8f#X	.
8fnL	sf
8f	.
8fJ	.
=769	=769
8f	.
8fL	.
8f	sf
8fJ	.
=770	=770
8f	.
8fL	sf
8f	.
8fJ	.
=771	=771
8f	.
8r	.
4r	.
=772	=772
4r	.
8r	.
(>8g	p
=773	=773
4.a-X	.
8f	.
=774	=774
4.d	.
8f	.
=775	=775
4.e-X	.
8g	.
=776	=776
4.b-	.
8g)	.
=777	=777
[2a-X	.
=778	=778
!!linebreak:original
(4a-]	.
8gL	.
8fJ)	.
=779	=779
(4e	.
[4b-)	.
=780	=780
(<4b-]	.
8aL	.
8gJ)	.
=781	=781
(4f#X	.
[4ee-X)	.
=782	=782
(>4ee	.
8ddL	.
8ccJ)	.
=783	=783
(>4.b-	.
!LO:TX:b:Bi:t=Cresc.	!
8a	.
=784	=784
8gL	.
8a	.
8b-	.
8ccJ)	.
=785	=785
(>4b-	.
8aL	.
8gJ	.
=786	=786
!LO:TX:b:Bi:t=Decresc.	!
8fL	.
8g	.
8a	.
8fJ)	.
=787	=787
(<24gLL	p
24f#X	.
24gJJ	.
24aLL	.
24g	.
24fnJJ	.
24eLL	.
24d#X	.
24eJJ	.
24fLL	.
24e)	.
24d#JJ	.
=788	=788
!!linebreak:original
(<8c'L	.
8c'	.
8c'	.
8c'J)	.
=789	=789
8Bn	.
8r	.
[4G [4f	.
=790	=790
8GL] 8f]	.
8G'J 8f	.
8G'L 8f	.
8GJ 8f	.
=791	=791
(<24gLL	.
24f#X	.
24gJJ	.
24aLL	.
24g	.
24fnJJ	.
24eLL	.
24d#X	.
24eJJ	.
24f#XLL	.
24e	.
24dnJJ)	.
=792	=792
(<8c'L	.
8c'	.
8c')	.
8c'J	.
=793	=793
(>24ggLL	.
24ff#X	.
24ggJJ	.
24aaLL	.
24gg	.
24ffnJJ	.
24eeLL	.
24dd#X	.
24eeJJ	.
24ffLL	.
24ee	.
24ddnJJ)	.
=794	=794
8cc'L	.
8cc'	.
8cc'	.
8cc'J	.
=795	=795
!!linebreak:original
(>24bb-LL	.
24aa	.
24cccJJ	.
24cccLL	.
24bb-	.
24aaJJ	.
24ggLL	.
24ff#X	.
24ggJJ	.
24aaLL	.
24gg	.
24ff#JJ)	.
=796	=796
(>8gg'L	.
8gg')	.
8gg'	.
8gg'J	.
=797	=797
(>24ggLL	.
24ff#X	.
24ggJJ	.
24aaLL	.
24gg	.
24ff#JJ)	.
[4gg	sf
=798	=798
(>24ggLL]	.
24ff#X	.
24ggJJ	.
24aaLL	.
24gg	.
24ff#JJ)	.
[4gg	.
=799	=799
!LO:TX:b:Bi:t=Cresc.	!
(>24ggLL]	sf
24ff#X	.
24ggJJ	.
24ff#LL	.
24gg	.
24ff#JJ	.
24ggLL	.
24ff#	.
24ggJJ	.
24ff#LL	.
24gg	.
24ff#JJ)	.
=800	=800
!!linebreak:original
(>24ggLL	.
24ff#X	.
24ggJJ	.
24ff#LL	.
24gg	.
24ff#JJ	.
24ggLL	.
24ff#	.
24ggJJ	.
24ff#LL	.
24gg)	.
24ff#JJ	.
=801	=801
(>24ggLL	ff
24aa	.
24ggJJ	.
24ffLL	.
24gg	.
24ffJJ	.
24eeLL	.
24ff	.
24eeJJ	.
24ddLL	.
24ee	.
24ddJJ)	.
=802	=802
(>24ccLL	.
24dd	.
24ccJJ	.
24b-LL	.
24cc	.
24b-JJ	.
24aLL	.
24b-	.
24aJJ	.
24gLL	.
24a	.
24gJJ)	.
=803	=803
8f	p
8r	.
4r	.
=804	=804
8B-'L	.
8B-'	.
8b-'J	.
8r	.
=805	=805
2r	.
=806	=806
!!linebreak:original
8c'L	.
8c'	.
8cc'J	.
8r	.
=807	=807
8r	.
(8gL	.
8c	.
8aJ)	.
=808	=808
8r	.
(8gL	.
8c	.
8aJ)	.
=809	=809
8r	.
(8gL	.
8c	.
8ccJ)	.
=810	=810
(<8gL	.
8bn	.
8gJ)	.
8r	.
=811	=811
(24aLL	f
24g	.
24aJJ	.
24b-LL	.
24a	.
24gJJ	.
24fLL	.
24e	.
24dJJ	.
24cLL	.
24B-	.
24AJJ)	.
=812	=812
8G'L	.
8G'J	.
8B-'	.
8r	.
=813	=813
(24b-LL	f
24a	.
24b-JJ	.
24ccLL	.
24b-	.
24aJJ	.
24gLL	.
24f	.
24eJJ	.
24dLL	.
24c	.
24B-JJ)	.
=814	=814
!!linebreak:original
8A'L	.
8A'	.
8c'J	.
8r	.
=815	=815
8r	.
(8gL	p
8c	.
8aJ)	.
=816	=816
8r	.
(8gL	.
8c	.
8aJ)	.
=817	=817
8r	.
!LO:TX:b:Bi:t=Cresc.	!
(8gL	.
8c)	.
8cc'J	.
=818	=818
8b-'L	.
8b-'	.
8a'	.
8f'J	.
=819	=819
4f	f
4B-	.
=820	=820
4A	.
4r	.
=821	=821
4r	.
(16ALL	p
16c	.
16g	.
16fJJ)	.
=822	=822
4e	.
4r	.
=823	=823
4r	.
(16cLL	.
16e	.
16a	.
16gJJ)	.
=824	=824
4f	.
4r	.
=825	=825
2r	.
=826	=826
!!linebreak:original
4r	.
8r	.
(8a	.
=827	=827
8g'L)	.
(8e'	.
8g'	.
8e'J)	.
=828	=828
(<4g	.
8f)	.
8a'	f
=829	=829
4.A	sf
(24ALL	.
24Bn	.
24c#XJJ)	.
=830	=830
8d'L	.
8e'	.
8f'	.
8g'J	.
=831	=831
8aL	.
8bn	.
8cc'	.
8cc#X'J	.
=832	=832
8ddL	.
8eeJ	.
(16qqdd/LL	sf
16qqee/JJ)	.
[4ff	.
=833	=833
(8ffL]	.
8ee)	.
(8ddM	.
8ccJ)	.
=834	=834
(8b-ML	.
8a)	.
(8gM	.
8fJ)	.
=835	=835
(<8eL	.
8f)	.
(8e-X'	.
8c'J)	.
=836	=836
!!linebreak:original
8B-	p
8r	.
(16B-LL	.
16d	.
16f	.
16dJJ)	.
=837	=837
4c	.
4r	.
=838	=838
4r	.
16r	.
(16ALL	.
16d	.
16cJJ)	.
=839	=839
4B-	.
4r	.
=840	=840
(<16GLL	.
16B-	.
16d	.
16cJJ	.
16B-LL	.
16d	.
16b-	.
16gJJ)	.
=841	=841
4f#X	.
4r	.
=842	=842
(<16dLL	.
16f#X	.
16a	.
16gJJ	.
16f#LL	.
16a	.
16dd	.
16ccJJ)	.
=843	=843
16r	.
16dLL	.
16cc	.
16b-JJ	.
16r	.
16dLL	.
16cc	.
16bnJJ	.
=844	=844
!!linebreak:original
16r	.
(<16gLL	.
16dd	.
16ccJJ)	.
16r	.
(<16eLL	.
16cc	.
16b-JJ)	.
=845	=845
!LO:TX:b:Bi:t=Cresc.	!
16r	.
(16aLL	.
16dd	.
16ccJJ)	.
16r	.
(16gLL	.
16dd	.
16ccJJ)	.
=846	=846
16r	.
(>16aLL	.
16aa	.
16ffJJ)	.
16r	.
16fLL	.
16ee	.
16ddJJ)	.
=847	=847
8e 8cc	.
8r	.
4r	.
=848	=848
8r	.
8g'L	.
8g'	.
8g'J	.
=849	=849
(>4.cc	.
32ddLLL	.
32cc	.
32bn)	.
32aJJJ	.
=850	=850
(<8g'L	.
8g'	.
8g')	.
8g'J	.
=851	=851
8g	.
8r	.
4r	.
=852	=852
!!linebreak:original
8r	.
8g'L	.
8g'	.
8g'J	.
=853	=853
!LO:TX:b:Bi:t=Cresc.	!
16ddLL	.
16cc	.
16bn	.
16ccJJ	.
16ddLL	.
16cc	.
16b-X	.
16aJJ	.
=854	=854
8b-	.
8B-'L	.
8B-'	.
8B-'J	.
=855	=855
4A	p
4r	.
=856	=856
8r	.
8c'L	.
(<8c'	.
8c'J	.
=857	=857
4.f	.
32gLLL	.
32f	.
32e	.
32dJJJ)	.
=858	=858
(<8c'L	.
8c')	.
8c'	.
8c'J	.
=859	=859
4c	.
4r	.
=860	=860
8r	.
8c'L	.
8c'	.
8c'J	.
=861	=861
!LO:TX:b:Bi:t=Cresc.	!
(<16gLL	.
16f	.
16e	.
16fJJ	.
16gLL	.
16f	.
16e	.
16dJJ)	.
=862	=862
!!linebreak:original
8c'L	.
8b-	.
8b-'	.
8b-'J	.
=863	=863
8a	p
8r	.
8r	.
[8cc	.
=864	=864
(>8ccL]	.
8ffJ)	.
8r	.
[4a	.
=865	=865
(8aL]	.
8ddJ)	.
8r	.
[8f	.
=866	=866
8f]	.
8r	.
4r	.
=867	=867
8r	.
8dd	.
8r	.
8dd	.
=868	=868
8r	.
8cc	.
8r	.
8b-	.
=869	=869
(16ddLL	.
16cc	.
16bn	.
16ccJJ	.
16ddLL	.
16cc	.
16b-X	.
16gJJ)	.
=870	=870
(16b-LL	.
16a	.
16g#X	.
16aJJ	.
16b-LL	.
16a	.
16gn	.
16eJJ)	.
=871	=871
4f	.
8r	.
[8f	.
=872	=872
!!linebreak:original
(8fL]	.
8b-J)	.
8r	.
[8d	.
=873	=873
!LO:TX:b:Bi:t=Cresc.	!
(8dL]	.
8dd)	.
8dd'	.
8dd'J	.
=874	=874
(>4dd	.
8ccL	.
8b-J)	.
=875	=875
(8a	p
[4.cc)	sf
=876	=876
8cc]	.
[4.cc	sf
=877	=877
(>8ccL]	.
8cc	.
8dd	.
8b-J	.
=878	=878
8aL	.
8f	.
8g	.
8eJ)	.
=879	=879
(16fLL	.
(16cc	.
16aa-X)	sf
16ffJJ)	.
!LO:TX:b:Bi:t=Cresc.	!
16ffLL	.
16ee	.
16dd	.
16eeJJ)	.
=880	=880
(16ff'LL	.
(16cc	.
16aa	sf
16ffJJ)	.
(16ffLL	.
16ee	.
16dd	.
16eeJJ)	.
=881	=881
!!linebreak:original
8ff	.
(16a-XLL	p
16fJJ	.
16b-LL	.
16gJJ)	.
8r	.
=882	=882
(16a-XLL	.
16fJJ)	.
8r	.
(16gLL	.
16eJJ)	.
8r	.
=883	=883
(>24ccLL	.
24bn	.
24ccJJ	.
24dd-XLL	.
24cc	.
24bJJ)	.
[4cc	.
=884	=884
(24ccLL]	.
24b-	.
24ccJJ	.
24dd-XLL	.
24cc	.
24b-JJ)	.
[4cc	.
=885	=885
(24ccLL]	.
24bn	.
24ccJJ	.
24dd-XLL	.
24cc	.
24bJJ)	.
[4cc	.
=886	=886
8ccL]	.
8cc'	.
8cc'	.
8cc'J	.
=887	=887
!LO:TX:b:Bi:t=Cresc.	!
(>4.ff	.
8aa)	.
=888	=888
(>4.bb-	.
8gg)	.
=889	=889
!!linebreak:original
(>4.aa	.
8ff)	.
=890	=890
(>8.ggL	.
16eeJk)	.
8.eetL	.
32ddLL	.
32eeJJJ	.
=891	=891
(16ffLL	.
!LO:TX:b:Bi:t=Cresc.	!
16ee	.
16ffJJ	.
16ggLL	.
16ff	.
16eeJJ)	.
[4ff	.
=892	=892
(16ffLL]	.
16ee	.
16ffJJ	.
16ggLL	.
16ff	.
16eeJJ)	.
[4ff	.
=893	=893
24ffLL]	.
(24dd	.
24ee-X	.
24ff	.
24gg	.
24aaJJ	.
24bb-LL	.
24aa	.
24gg	.
24ff	.
24een	.
24ddJJ)	.
=894	=894
(24ee-XLL	f
24ff	.
24gg	.
24ff	.
24ee-	.
24ddJJ	.
24ccLL	.
24b-	.
24a	.
24g	.
24f	.
24e-XJJ)	.
=895	=895
4d	p
8r	.
4r	.
=896	=896
8e-X'L	.
8e-'	.
8e-'J	.
8r	.
=897	=897
2r	.
=898	=898
!!linebreak:original
8a-XL	.
8a-	.
8a-J	.
8r	.
=899	=899
2r	.
=900	=900
2r	.
=901	=901
8cc#XL	p
8cc#'	.
8ee'J	.
8r	.
=902	=902
8b-'L	pp
8b-'	.
8b-'	.
8b-'J	.
=903	=903
8b-'L	.
8b-'	.
8b-'	.
8b-'J	.
=904	=904
8aL	.
8a	.
8a	.
8aJ	.
=905	=905
8aL	.
8a	.
8a	.
8aJ	.
=906	=906
8a-XL	.
8a-	.
8a-	.
8a-J	.
=907	=907
8a-XL	.
8a-	.
8a-	.
8a-J	.
=908	=908
8a-XL	.
8a-	.
8a-	.
8a-J	.
=909	=909
8a-XL	.
8a-	.
8a-	.
8a-J	.
=910	=910
!!linebreak:original
8gL	.
8g	.
8g	.
8gJ	.
=911	=911
8gL	.
8g	.
8g	.
!LO:TX:b:Bi:t=Cresc.	!
8gJ	.
=912	=912
8gL	.
8g	.
8g	.
8gJ	.
=913	=913
8gL	.
8g	.
8B-	.
8gJ	.
=914	=914
8c	p
8r	.
4r	.
=915	=915
2r	.
=916	=916
2r	.
=917	=917
2r	.
=918	=918
2r	.
=919	=919
2r	.
=920	=920
2r	.
=921	=921
2r	.
=922	=922
!LO:TX:b:Bi:t=Cresc.	!
2a	.
=923	=923
4.b-	.
8g	.
=924	=924
8e'L	.
8c'J	.
[4cc	.
=925	=925
8ccL]	.
8a'	.
8cc'	.
8a'J	.
=926	=926
2e-X 2a	.
=927	=927
2d 2b-	f
=928	=928
24bb-LL	.
24aa	.
24bb-JJ	.
24cccLL	.
24bb-	.
24aaJJ	.
24ggLL	.
24ff	.
24eeJJ	.
24ddLL	.
24cc	.
24b-JJ	.
=929	=929
!!linebreak:original
8a'L	.
8f'	.
8a'	.
8cc'J	.
=930	=930
(>24ee-XLL	.
24dd	.
24ee-JJ	.
24ffLL	.
24ee-	.
24ddJJ	.
24ccLL	.
24b-	.
24aJJ	.
24gLL	.
24f	.
24e-XJJ)	.
=931	=931
8d'L	.
8d'	.
8dd'J	.
8r	.
=932	=932
8e'L	.
8e'	.
8b-'	.
8b-'J	.
=933	=933
8a	.
8r	.
8r	.
8g	p
=934	=934
8cL	.
8aJ	.
8r	.
8g	.
=935	=935
8cL	.
8ccJ	.
8r	.
8g	.
=936	=936
!LO:TX:a:Bi:t=Cresc.	!
(>16cLL	.
16A	.
16c')	.
16c'JJ	.
16c'LL	.
16B-'	.
16c'	.
16c'JJ	.
=937	=937
!!linebreak:original
(16cLL	.
16A)	.
16f	.
16fJJ	.
16fLL	.
16d	.
16f'	.
16f'JJ	.
=938	=938
(16fLL	.
16e-X)	.
16f'	.
16f'JJ	.
16fLL	.
16d	.
16f'	.
16f'JJ	.
=939	=939
(16gLL	.
16e)	.
16g'	.
16g'JJ	.
16aLL	.
16f	.
16a'	.
16a'JJ	.
=940	=940
(>24aLL	.
24g	.
24aJJ	.
24b-LL	.
24a	.
24gJJ	.
24fLL	.
24e	.
24dJJ	.
24cLL	.
24B-	.
24AJJ)	.
=941	=941
(16aLL	.
16f)	.
16a'	.
16a'JJ	.
(16b-LL	.
16g)	.
16b-'	.
16b-'JJ	.
=942	=942
24aLL	.
(24aa	.
24ggJJ	.
24ffLL	.
24ee	.
24ddJJ	.
24ccLL	.
24b-	.
24aJJ	.
24gLL	.
24f	.
24eJJ)	.
=943	=943
!!linebreak:original
8f	.
8r	.
4r	.
=944	=944
24a'LL	.
(24aa	.
24gg	.
24ff	.
24ee	.
24ddJJ	.
24ccLL	.
24b-	.
24a	.
24g	.
24f	.
24eJJ)	.
=945	=945
8f	.
8r	.
4r	.
=946	=946
24f'LL	f
(24ff	.
24ee	.
24dd	.
24cc	.
24bnJJ	.
24ccLL	.
24dd	.
24cc	.
24b-X	.
24a	.
24gJJ)	.
=947	=947
24f'LL	.
(24ff	.
24ee	.
24dd	.
24cc	.
24bnJJ	.
24ccLL	.
24dd	.
24cc	.
24b-X	.
24a	.
24gJJ)	.
=948	=948
4f	ff
4G 4e 4cc	.
=949	=949
4A 4f 4cc	.
4r	.
==	==
*-	*-
!!!YEM:	FFIN conversion: MUSITEK, Ojai, California
!!!RDF**kern: > = above
!!!RDF**kern: < = below
